X:1
T:Title
%%score { ( 1 3 ) | ( 2 4 ) }
L:1/8
Q:1/4=106
M:4/4
K:D
V:1 treble nm="Grand Piano"
V:3 treble 
V:2 bass 
V:4 bass 
V:1
 F3 E G2 F2 | F3 E E2 D2 | A3 B D2 E2 | z4 E4 | F3 E G2 F2 | A3 G G2 F2 | D3 D C2 D2 | %7
w: Celia~E.~Stanton * * *|||||||
[M:7/8] F3 E D3 |[M:1/4] AA |[M:4/4] [G,E]-[G,-CE-][G,CE]G F2[K:bass] [G,CE]2 | %10
w: |||
 A,A,[K:treble][A,F]-[A,DF] z2 AA | [G,E]-[G,-CE-][G,CE]G B2 [DA]2 | %12
w: ||
 [A,F]-[A,-DF-] [A,DF]2 z2 [A,FA][A,FA] | [Fd]3 [DF] [DG]2 [DA]2 | [DB]2 [DB]4 DE | %15
w: |||
 .D2 z2[K:bass] z4 | %16
w: |
[M:3/4] D6[Q:1/4=104][Q:1/4=103][Q:1/4=101][Q:1/4=100][Q:1/4=98][Q:1/4=97][Q:1/4=95][Q:1/4=94][Q:1/4=92][Q:1/4=90][Q:1/4=89][Q:1/4=87][Q:1/4=86][Q:1/4=84][Q:1/4=83][Q:1/4=81] |] %17
w: |
V:2
 A,3 G, B,2 A,2 | A,3 G, G,2 F,2 | C3 D F,2 G,2 | B,3 A, A,2 z2 | A,3 G, B,2 A,2 | C3 B, B,2 A,2 | %6
 F,3 F, E,2 F,2 |[M:7/8] A,3 G, F,3 |[M:1/4] F,F, |[M:4/4] A,,A,,A,,B, A,2 A,,2 | %10
 D,D,D,D, z2 F,F, | A,,A,,A,,B, G,2 [A,,F,]2 | D,D, .D,2 z2 D,D, | %13
 [D,F,]3 [D,A,] [B,,G,]2 [A,,F,]2 | [G,,G,]2 [G,,G,]4 F,G, | A,,A,,A,,A,, A,,3 D, | %16
[M:3/4] z2 G,2 F,2 |] %17
V:3
 x8 | x8 | x8 | G3 F z2 G,2 | x8 | x8 | x8 |[M:7/8] x7 |[M:1/4] x2 |[M:4/4] .C2 z2 z4[K:bass] | %10
 [F,D]2[K:treble] .D2 z4 | .C2 z2 z4 | .D2 z2 z4 | x8 | x8 | %15
 [A,F]-[A,-DF-][A,DF][K:bass][F,D] [G,CE]3 [F,A,D] |[M:3/4] [F,A,]2 B,2 A,2 |] %17
V:4
 x8 | x8 | x8 | x8 | x8 | x8 | x8 |[M:7/8] x7 |[M:1/4] x2 |[M:4/4] x8 | x8 | x8 | x8 | x8 | x8 | %15
 x8 |[M:3/4] D,6 |] %17

